X: 13006
T: Fight Or Flight
R: jig
M: 6/8
K: Gmajor
G2B- Bd2|g3- gfg|e3- efg|a2g agf|
g2b- bg2|d2e dcB|_B2c BAG|1 A2B cBA:|2 _A2c _BAF ]|
|:G2G dG_e-|eed edc|_B2A BcA-|AA_B cBA|
G2G dG=e-|eed edc|_B2A Bc_A-|AAc _BAF:|
|:G2B- BBc|dcB =FB2|_E2c- ccd|_edc _Ac2|
G2B- BBc|dcB =FB2|_E2c- c_Bd|c2_A c_BA:|

